!!!COM: Morley, Thomas
!!!OTL: Gaude Maria Virgo
!!!YOR: from 'Collected Motets' edited by H.K. Andrews & Thurston Dart, pp.49-65
!!!YOO: Stainer & Bell (London)
!!!YOY: 1959
**kern	**kern	**kern	**kern	**kern
*ICvox	*ICvox	*ICvox	*ICvox	*ICvox
! Bassus	! Tenor	! Altus	! Cantus	! Cantus
*M4/2	*M4/2	*M4/2	*M4/2	*M4/2
*k[b-e-]	*k[b-e-]	*k[b-e-]	*k[b-e-]	*k[b-e-]
*B-:	*B-:	*B-:	*B-:	*B-:
=1	=1	=1	=1	=1
0r	0r	{4.B-	1r	2r
.	.	8c	.	.
.	.	8d	.	{1b-
.	.	8B-	.	.
.	.	4e-}	.	.
.	.	4d	{4.f	.
.	.	4B-	.	.
.	.	.	8g	.
.	.	{4f	8a	[2cc
.	.	.	8f	.
.	.	4e-	[4b-	.
=2	=2	=2	=2	=2
1r	2r	2f}	4b-]	2cc}]
.	.	.	4a	.
.	[{1.B-	4f	4.b-	2dd
.	.	{8B-	.	.
.	.	8c	16a	.
.	.	.	16g	.
{4.BB-	.	8d	2.f	1r
.	.	8B-	.	.
.	.	8d	.	.
8C	.	8e-	.	.
8D	.	8f	.	.
8BB-	.	8d	.	.
4E-	.	4e-}	8g	.
.	.	.	8a}	.
=3	=3	=3	=3	=3
4D}	2B-]	2f	2b-	{4.f
4BB-	.	.	.	.
.	.	.	.	8g
{4F	1c}	4f	2r	8a
.	.	.	.	8f
4E-	.	4g	.	2b-
2F}	.	[{1f	2r	.
.	.	.	.	4a}
[2BB-	4d	.	{4.dd	[2b-
.	{8B-	.	.	.
.	8c	.	8ee-	.
=4	=4	=4	=4	=4
2BB-]	8d	2f]	8ff	2b-]
.	8B-	.	8dd	.
.	4d}	.	4ff	.
2r	4G	1g	4ee-	2r
.	{8G	.	2dd	.
.	8A	.	.	.
2r	8B-	.	.	2r
.	8G	.	.	.
.	4c}	.	4een}	.
{4.F	{8F	2a}	2ff	4r
.	8G	.	.	.
.	8A	.	.	4cc
8G	8B-	.	.	.
=5	=5	=5	=5	=5
8A	4c}	2f	2r	4ff
8F	.	.	.	.
4B-	{2B-	.	.	4dd
2F}	.	{4.f	4r	2cc
.	4A}	.	4cc	.
.	.	8e-	.	.
2BB-	4B-	8d	4ff	2b-
.	.	8e-	.	.
.	4B-	8f	4dd	.
.	.	8g	.	.
2r	4f	8a	{4cc	2r
.	.	8f	.	.
.	4d	[4b-	4dd	.
=6	=6	=6	=6	=6
2r	2c	4b-]	2ee-}	2r
.	.	4a}	.	.
4r	4B-	2b-	2dd	4b-
4BB-	{2d	.	.	{2ff
4B-	.	4f	2r	.
4G	4e-}	2b-	.	4ee-}
[2F	4f	.	4r	4dd
.	8r	[4a	4f	[{4cc
.	8c	.	.	.
=7	=7	=7	=7	=7
1F]	4f	4a]	4a	4cc]
.	4d	4f	4b-	2b-
.	2c	1f	2cc	.
.	.	.	.	4a}
1BB-	4B-	.	1dd	2b-
.	2F	.	.	.
.	.	4r	.	4r
.	4F	[4d	.	[4f
=8	=8	=8	=8	=8
1r	2B-	4d]	4r	4f]
.	.	4d	2dd	4f
.	2G	4.B-	.	4.b-
.	.	.	4dd	.
.	.	8B-	.	8b-
4r	4F	1c	4.ff	4a
2F	2f	.	.	2a
.	.	.	8ff	.
.	.	.	{2cc	.
4F	[4f	.	.	4a
=9	=9	=9	=9	=9
2B-	4f]	1r	2b-}	2dd
.	2d	.	.	.
2G	.	.	2r	2b-
.	4en	.	.	.
2F	4f	4r	2cc	2a
.	2F	2f	.	.
2r	.	.	2cc	2r
.	4F	4a-	.	.
=10	=10	=10	=10	=10
4r	2c	4.g	4.ee-	2r
2C	.	.	.	.
.	.	{8f	{8dd	.
.	4G	8en	8cc	4r
.	.	4f	8b-	.
4C	2c	.	8a	2cc
.	.	8e}	8g	.
4.F	.	2f	2a}	.
.	2F	.	.	4cc
8F	.	.	.	.
2BB-	.	[2d	2b-	{4.ff
.	4F	.	.	.
.	.	.	.	8ee-
=11	=11	=11	=11	=11
1r	4.B-	4d]	4r	8dd
.	.	.	.	8cc
.	.	4d	4f	4.b-}
.	{8B-	.	.	.
.	2G}	4.b-	4g	.
.	.	.	.	{8a
.	.	.	4en	4g}
.	.	8b-	.	.
4r	2F	4a	4f	2cc
4F	.	4f	4a	.
4G	2r	4d	{4b-	4r
4D	.	4f	4dd	4b-
=12	=12	=12	=12	=12
4E-	2r	4e-	8cc	4g
.	.	.	8b-	.
4G	.	4B-	2b-	4d
2F	4r	2c	.	4f
.	4f	.	4a}	4f
2BB-	4d	2B-	2b-	1f
.	4B-	.	.	.
2r	4d	2r	4r	.
.	4A	.	4cc	.
=13	=13	=13	=13	=13
1r	4B-	4r	4dd	2f
.	4F	4f	4a	.
.	2B-	4g	4b-	2r
.	.	4d	4dd	.
4r	2c	4e-	4.cc	2r
4c	.	4g	.	.
.	.	.	{8b-	.
4d	2r	2f	2a}	4r
4A	.	.	.	4cc
=14	=14	=14	=14	=14
4B-	4r	1f	2r	4dd
4F	4c	.	.	4a
{4B-	4d	.	4r	4b-
4F}	4A	.	4cc	4cc
2BB-	4B-	2f	4b-	{4dd
.	4d	.	4f	4b-}
2r	2c	2g	{4f	[2cc
.	.	.	4en}	.
=15	=15	=15	=15	=15
4r	4F	{2a	2f	2cc]
4F	4f	.	.	.
4G	2d	2b-}	4r	2r
4D	.	.	4ff	.
4E-	4r	1b-	4gg	1r
4B-	4f	.	4dd	.
{4G	4g	.	4ee-	.
4B-}	4d	.	4ff	.
=16	=16	=16	=16	=16
2E-	4e-	2.b-	{4.gg	0r
.	4g	.	.	.
.	.	.	16ff	.
.	.	.	16ee-}	.
4.B-	{8f	.	{8dd	.
.	8e-	.	8ee-}	.
.	8d	4f	2ff	.
8A	8c	.	.	.
{8G	2B-	2b-	.	.
8F	.	.	.	.
4G}	.	.	4een	.
2F	2c}	4a	4ff	.
.	.	4f	4ff	.
=17	=17	=17	=17	=17
0r	2B-	4g	4dd	4r
.	.	4d	4b-	4ff
.	4r	4e-	2b-	4gg
.	4B-	4f	.	4dd
.	4G	4g	4b-	4ee-
.	4D	{4f	2b-	4ff
.	4E-	4e-}	.	{4gg
.	4f	[4c	{4a	[4ff
=18	=18	=18	=18	=18
2C	2G	4c]	2g}	4ff]
.	.	4c	.	4een}
4D	2F	4A	4r	1.ff
4AA	.	4c	4cc	.
4BB-	4r	4B-	4dd	.
4F	4c	4c	4a	.
4BB-	4d	2f	4b-	.
4F	4A	.	4cc	.
=19	=19	=19	=19	=19
2BB-	4B-	2f	4.dd	0r
.	4d	.	.	.
.	.	.	{16cc	.
.	.	.	16b-}	.
2F	4c	4r	4a	.
.	4A	4f	4cc	.
4G	4B-	4d	4.b-	.
4D	4d	4f	.	.
.	.	.	{8a	.
4E-	4B-	4e-	4g}	.
4F	4A	4c	[{4f	.
=20	=20	=20	=20	=20
2C	2G	2c	4f]	2r
.	.	.	4en}	.
1F	2f	2c	2f	4r
.	.	.	.	4f
.	4r	4r	4r	2.cc
.	4F	4f	4a-	.
2r	4c	4e-	4.g	.
.	4e-	4g	.	4cc
.	.	.	{8an	.
=21	=21	=21	=21	=21
1r	{4d	{4f	4bn}	{4dd
.	4c	4g}	2cc	4een
.	2d}	2f	.	2ff}
.	.	.	{4bn	.
4r	2c	2g	4cc}	2ee
4C	.	.	{4.cc	.
[2F	{8A	2f	.	4r
.	8B-}	.	8b-}	.
.	4c	.	{8a	[{4ff
.	.	.	8g	.
=22	=22	=22	=22	=22
4F]	{8d	4r	8f}	8ff]
.	8e-}	.	{4b-	8ee-
4F	4f	4f	.	8dd
.	.	.	8a	8cc
{4G	4r	4d	4g	4b-}
4A	[{4f	4c	8f	4cc
.	.	.	8e-}	.
2B-	8f]	{4B-	2d	{4.dd
.	8e-}	.	.	.
.	4.d	2f}	.	.
.	.	.	.	8cc
2G}	.	.	2r	8b-
.	{8c	.	.	8a
.	4B-}	{4en	.	4g}
=23	=23	=23	=23	=23
2F	4c	4f}	4.ff	2a
.	4F	{4.f	.	.
.	.	.	{8ee-	.
2BB-	2.B-	.	8dd	4r
.	.	8e-}	8cc}	.
.	.	{8d	4b-	{8ff
.	.	8c}	.	8ee-
{8B-	.	{8B-	2b-	8dd
8A	.	8c	.	8cc}
8G	4B-	4d}	.	{8b-
8F	.	.	.	8a
4E-}	{4c	4e-	4r	8g}
.	.	.	.	{8.cc
4F	4d	4r	4f	.
.	.	.	.	16b-
.	.	.	.	8a}
=24	=24	=24	=24	=24
{4G	2e-}	4r	2.b-	2g
4E-}	.	4B-	.	.
2BB-	4d	2.f	.	2r
.	4B-	.	4b-	.
1r	4A	.	{4cc	1r
.	4d	4f	4dd	.
.	2c	{4g	2ee-}	.
.	.	4a	.	.
=25	=25	=25	=25	=25
2r	2.B-	2b-}	2dd	4r
.	.	.	.	4.ff
2BB-	.	4f	2r	.
.	.	.	.	{8ee-
.	[{4B-	{8b-	.	8dd
.	.	8a	.	8cc}
2.E-	8B-]	8g	4r	4.b-
.	8A	8f	.	.
.	8G	2e-}	4.ee-	.
.	8F	.	.	{8a
.	4E-}	.	.	2g}
.	.	.	{8dd	.
4E-	{8e-	4g	8cc	.
.	8dd}	.	8b-}	.
=26	=26	=26	=26	=26
{4F	{4c	{4f	{4a	1r
4G	4B-	4d}	4.g	.
2B-}	2G}	2g	.	.
.	.	.	16f	.
.	.	.	16e-	.
.	.	.	8d	.
.	.	.	8e-}	.
2A	1F	{4.cc	4f	2r
.	.	.	{4.cc	.
.	.	8b-	.	.
2r	.	8a	.	4r
.	.	8g	8b-}	.
.	.	8f	{8a	4f
.	.	8e-	8g}	.
=27	=27	=27	=27	=27
{4.B-	4r	4d}	{8f	2.b-
.	.	.	8e-	.
.	{4.B-	4f	4d}	.
8A	.	.	.	.
8G	.	2g	2e-	.
8F	8A}	.	.	.
8E-	{8G	.	.	4b-
8D	8F}	.	.	.
4C}	{4G	4e-	1r	{4cc
4BB-	2B-}	4f	.	4dd
2C	.	4e-	.	2ee-}
.	{4A	4c	.	.
=28	=28	=28	=28	=28
2BB-	2B-}	4f	{4.ff	4dd
.	.	8B-	.	{4.ff
.	.	8c	8ee-}	.
2r	{4.B-	8d	{8dd	.
.	.	8e-	8cc}	8ee-}
.	.	{2f	{2b-	{8cc
.	8A	.	.	8dd}
2r	8G	.	.	{8ee-
.	8F	.	.	8dd
.	4G}	4en}	4g}	8b-
.	.	.	.	8cc}
{4.c	4F	2f	2cc	4a
.	[{4F	.	.	[{4cc
8B-	.	.	.	.
=29	=29	=29	=29	=29
8A	8F]	2c	4r	8cc]
8G	8G	.	.	8b-}
8F	4A}	.	{4.ff	{8a
8E-	.	.	.	8g}
8D	2B-	4d	.	{8f
8C}	.	.	8ee-}	16g
.	.	.	.	16a
4BB-	.	4f	4dd	8b-
.	.	.	.	8a
{4E-	2r	{4e-	{8cc	4g}
.	.	.	8b-	.
4G	.	4B-	2b-	{8d
.	.	.	.	8e-
2F}	4r	2c}	.	[2f
.	[{4f	.	4a}	.
=30	=30	=30	=30	=30
2BB-	8f]	4d	1b-	2f}]
.	8e-	.	.	.
.	8d	{8f	.	.
.	8c	8e-	.	.
2r	8B-	8d	.	2r
.	8A	8c}	.	.
.	8G	{8B-	.	.
.	8F	8A}	.	.
4r	4E-}	{4G	2r	{4.b-
{4.B-	{4D	4F}	.	.
.	.	.	.	8a}
.	4E-}	4G	4b-	{8g
8A	.	.	.	8f}
8G	[{4B-	[{4g	4b-	{8e-
8F	.	.	.	8f
=31	=31	=31	=31	=31
2E-}	8B-]	8g]	4.b-	8g
.	8A	8f}	.	8a}
.	4G}	4e-	.	2b-
.	.	.	{8cc	.
2BB-	2B-	{4f	2dd}	.
.	.	[4d	.	[{4ff
1BB-	4r	8d]	4.ff	8ff]
.	.	8c	.	8ee-}
.	4.f	8B-	.	{8dd
.	.	8c	8ee-	8cc}
.	.	8d	{8dd	{8b-
.	8e-	8e-	8cc	8cc
.	{8d	4f}	4b-}	4dd}
.	8B-}	.	.	.
=32	=32	=32	=32	=32
0F;	0c;	0f;	0a;	0cc;
=33	=33	=33	=33	=33
!! "Secunda Pars"
0r	0r	0r	0r	2.cc
.	.	.	.	4f
.	.	.	.	4b-
.	.	.	.	4cc
.	.	.	.	4.dd
.	.	.	.	8dd
=34	=34	=34	=34	=34
0r	0r	4r	0r	2cc
.	.	2f	.	.
.	.	.	.	4r
.	.	4B-	.	4dd
.	.	4e-	.	4cc
.	.	4f	.	2dd
.	.	4.g	.	.
.	.	.	.	4b-
.	.	8g	.	.
=35	=35	=35	=35	=35
0r	1r	2f	0r	2a
.	.	4r	.	2.cc
.	.	4f	.	.
.	2r	4en	.	.
.	.	2f	.	4a
.	[2c	.	.	4.g
.	.	4e	.	.
.	.	.	.	8g
=36	=36	=36	=36	=36
2.F	4c]	1f	0r	2a
.	4F	.	.	.
.	4A	.	.	2r
4BB-	4B-	.	.	.
4E-	4.c	4r	.	4g
4F	.	2f	.	4a
.	8c	.	.	.
4.G	2B-	.	.	4.b-
.	.	4en	.	.
8G	.	.	.	8b-
=37	=37	=37	=37	=37
4F	4r	4.f	2.cc	2a
4F	2c	.	.	.
.	.	8f	.	.
4En	.	4g	.	2r
2F	4A	4c	4f	1r
.	4c	4f	4a	.
4D	4F	2f	4b-	.
2C	4.G	.	4.cc	.
.	.	4en	.	.
.	8G	.	8cc	.
=38	=38	=38	=38	=38
4r	2F	4f	4a	2.cc
2F	.	4f	2a	.
.	2f	{4c	.	.
4D	.	4d}	2b-	4f
{2E-	4e-	4.B-	.	4g
.	2e-	.	2g	4b-
.	.	8B-	.	.
4.C}	.	2c	.	4.ee-
.	4e-	.	4a	.
8C	.	.	.	8ee-
=39	=39	=39	=39	=39
2BB-	4f	4r	4.b-	4dd
.	4d	4f	.	2ff
.	.	.	8b-	.
2r	2c	2g	2cc	.
.	.	.	.	4een
2.F	{4c	4.a	4r	4.ff
.	4d}	.	2f	.
.	.	{8b-	.	8ff
.	4f	4a}	.	[2cc
4En	[4c	[{4g	4g	.
=40	=40	=40	=40	=40
{2F	4c]	8g]	{8a	2cc]
.	.	8f	8b-	.
.	{4A	2f}	4.cc}	.
4.C}	4G}	.	.	4r
.	.	.	{8b-	.
.	4.c	4en	4g}	2cc
8C	.	.	.	.
2F	.	2f	2a	.
.	8c	.	.	.
.	2d	.	.	4a
2r	.	4f	4r	4.b-
.	4B-	4B-	[4ff	.
.	.	.	.	{8dd
=41	=41	=41	=41	=41
2r	2c	{4a	4ff]	2cc}
.	.	4g	4een	.
4r	{4A	4c}	4.ff	2f
2B-	4B-}	{8d	.	.
.	.	8e-}	8ee-	.
.	2F	2f	4dd	4r
4A	.	.	{4.cc	2ff
4.G	2B-	2r	.	.
.	.	.	8b-}	.
.	.	.	[4b-	4een
8G	.	.	.	.
=42	=42	=42	=42	=42
2F	4.c	2r	4b-]	4.ff
.	.	.	4a	.
.	8c	.	.	8ff
4r	1B-	2f	1b-	2dd
4BB-	.	.	.	.
4BB-	.	4d	.	2r
4D	.	4f	.	.
{2E-	4r	2g	2r	2b-
.	4e-	.	.	.
=43	=43	=43	=43	=43
2BB-}	4d	4f	2r	4b-
.	4B-	2f	.	4dd
2C	2G	.	4r	1cc
.	.	4en	4g	.
4r	1F	2f	2a	.
4c	.	.	.	.
4A	.	4r	2cc	2f
4F	.	4f	.	.
=44	=44	=44	=44	=44
2G	1r	4d	{2b-	2r
.	.	4B-	.	.
2F	.	2f	2a}	4r
.	.	.	.	2cc
4r	2c	2e-	1g	.
2C	.	.	.	4cc
.	4c	4r	.	4.ee-
4C	[4e-	[4g	.	.
.	.	.	.	8ee-
=45	=45	=45	=45	=45
4.E-	8e-]	4g]	2r	2b-
.	8e-	.	.	.
.	4B-	4g	.	.
8E-	.	.	.	.
2BB-	4f	4.b-	2dd	2r
.	4f	.	.	.
.	.	8b-	.	.
2r	4f	2B-	4dd	4r
.	4d	.	4.ff	4f
[2F	2c	4r	.	2a-
.	.	.	8ff	.
.	.	4f	[4cc	.
=46	=46	=46	=46	=46
4F]	4r	4f	4cc]	4a-
4F	2c	4.a-	4cc	4f
4.A-	.	.	4cc	2e-
.	.	8a-	.	.
.	4c	4e-	4.ee-	.
8A-	.	.	.	.
2E-	4.e-	4g	.	4r
.	.	.	8ee-	.
.	.	4g	2ee-	4b-
.	8e-	.	.	.
2r	2B-	4.f	.	4b-
.	.	.	[4dd	[4b-
.	.	8f	.	.
=47	=47	=47	=47	=47
2F	4r	2f	8dd]	8b-]
.	.	.	8dd	8b-
.	{4f	.	{4.cc	4a
2G	4d}	2r	.	4g
.	.	.	8b-}	.
.	4B-	.	2b-	4d
4.F	4.c	2r	.	4.f
.	.	.	4a	.
8F	8c	.	.	8f
2BB-	2d	4r	2b-	2f
.	.	[4f	.	.
=48	=48	=48	=48	=48
0r	4r	4f]	4r	4r
.	2B-	4d	2b-	2ff
.	.	4d	.	.
.	4G	{2g	4b-	4ee-
.	2B-	.	2b-	2dd
.	.	2f}	.	.
.	2c	.	2g	2cc
.	.	4en	.	.
=49	=49	=49	=49	=49
4r	4F	2f	4a	2cc
2F	2A	.	2cc	.
.	.	4f	.	2r
4D	4d	4f	4b-	.
2F	2c	{2f	2a	1r
2G	2B-	2d}	2g	.
=50	=50	=50	=50	=50
2D	2A	2d	2f#	4r
.	.	.	.	4.dd
2r	4.G	4.g	4r	.
.	.	.	.	8dd
.	.	.	4.b-	4ee-
.	8G	8g	.	.
1r	2B-	4g	.	2dd
.	.	.	8b-	.
.	.	{2f	4b-	.
.	2c	.	2g	[2cc
.	.	4en}	.	.
=51	=51	=51	=51	=51
4r	4F	4f	4a	2cc]
4.F	4.c	4.f	4.a	.
.	.	.	.	2r
8F	8c	8f	8a	.
4D	4F	4f	4b-	.
2E-	2G	{4B-	2g	2r
.	.	4c}	.	.
2D	2A	2d	2f#	4r
.	.	.	.	[4a
=52	=52	=52	=52	=52
0r	0r	2.d	4r	4a]
.	.	.	2fn	4a
.	.	.	.	2.b-
.	.	4d	4f	.
.	.	2.e-	{4g	.
.	.	.	2a-}	4cc
.	.	.	.	[2b-
.	.	4e-	4g	.
=53	=53	=53	=53	=53
1r	1B-	1d	4f	1b-]
.	.	.	2f	.
.	.	.	4g	.
2.F	4c	2.f	{4a	1r
.	2d	.	2b-	.
4F	4c	4f	4a	.
=54	=54	=54	=54	=54
2G	2B-	{4e-	2.g}	1r
.	.	2d}	.	.
2E-	4.G	.	.	.
.	.	4c	4g	.
.	8A	.	.	.
2D	4B-	4d	2f	4r
.	{8A	2d	.	2a
.	8G}	.	.	.
4D	4F	.	4r	.
4D	[4B-	4f	4f	4b-
=55	=55	=55	=55	=55
2.C	4B-]	4c	{4en	2.cc
.	4A	2.c	2f}	.
.	4G	.	.	.
4C	4c	.	4e	4cc
1F	2c	4r	2f	2a
.	.	2c	.	.
.	2r	.	2cc	2a
.	.	[4f	.	.
=56	=56	=56	=56	=56
1r	1r	4f]	4cc	{4a
.	.	{4d	{4dd	2b-}
.	.	2c}	2ee-}	.
.	.	.	.	4a
4r	4r	4B-	2dd	2b-
4B-	4d	4f	.	.
4B-	4d	4g	2r	2r
4A	4f	4a	.	.
=57	=57	=57	=57	=57
2G	{4f	{2b-	2r	4r
.	4en}	.	.	4g
1F	2f	2a}	4r	2cc
.	.	.	4f	.
.	2r	2f	2cc	4a
.	.	.	.	4f
2r	2F	4r	4a	2cc
.	.	[4c	4f	.
=58	=58	=58	=58	=58
2C	2G	4c]	2cc	2r
.	.	2e-	.	.
2E-	2G	.	2r	2g
.	.	4c	.	.
4D	2d	4B-	2r	2b-
4BB-	.	2f	.	.
2F	2c	.	2cc	4a
.	.	[{4c	.	4f
=59	=59	=59	=59	=59
1r	4r	8c]	2ee-	2cc
.	.	8d	.	.
.	4c	8e-	.	.
.	.	8f	.	.
.	{2e-	2g}	4cc	2r
.	.	.	4b-	.
2r	4d}	4f	2ff	4r
.	4B-	4b-	.	2f
2F	4f	{8a-	2cc	.
.	.	8g	.	.
.	[4c	[4f	.	[4a-
=60	=60	=60	=60	=60
2A-	4c]	8f]	4.cc	4a-]
.	.	16e-	.	.
.	.	16d	.	.
.	4c	4c}	.	4f
.	.	.	{8dd	.
4G	2g	4B-	2ee-}	4e-
4E-	.	[{4B-	.	2b-
2B-	2f	8B-]	2dd	.
.	.	8c	.	.
.	.	8d	.	{8f
.	.	8e-}	.	8g}
2F	4r	{8f	2cc	{8an
.	.	8g}	.	8b-
.	4f	4a-	.	[4cc
=61	=61	=61	=61	=61
4G	4e-	{4g	2r	8cc]
.	.	.	.	8b-}
4B-	4d	4f}	.	2b-
2F	2c	2f	4r	.
.	.	.	2f	4a
4BB-	2d	4r	.	2b-
4BB-	.	4f	2b-	.
2E-	2G	4.B-	.	2r
.	.	.	4g	.
.	.	8c	.	.
=62	=62	=62	=62	=62
4D	2B-	2d	4f	1r
4BB-	.	.	2ff	.
2F	2A	4c	.	.
.	.	{4.f	{2cc	.
2D	4F	.	.	4r
.	.	8e-	.	.
.	2f	8d	4b-	4f
.	.	8B-}	.	.
2C	.	2c	4a	2cc
.	4en	.	4g}	.
=63	=63	=63	=63	=63
4F	8f	4c	2f	4a
.	8c	.	.	.
4.D	4d	4B-	.	4f
.	2A	4d	4r	1.ff
8C	.	.	.	.
4AA	.	4c	4cc	.
4BB-	4r	4B-	{4dd	.
4AA	2F	4c	4cc	.
2BB-	.	2d	2b-}	.
.	4B-	.	.	.
=64	=64	=64	=64	=64
2F	4A	4c	2cc	4r
.	4F	4f	.	4cc
4r	2f	2a-	2r	4cc
4F	.	.	.	4cc
2A-	2c	4f	4r	2cc
.	.	4e-	4cc	.
4G	2g	2b-	2ee-	4r
4E-	.	.	.	[{4b-
=65	=65	=65	=65	=65
2B-	4f	2r	4dd	8b-]
.	.	.	.	16a
.	.	.	.	16g
.	4d	.	4b-	8f
.	.	.	.	8g}
2F	{8c	4r	[1.ff	{8a
.	8B-	.	.	8b-
.	8A	4c	.	4.cc
.	16B-	.	.	.
.	16c	.	.	.
4D	2d}	4f	.	.
.	.	.	.	8b-}
4BB-	.	4.f	.	2b-
2F	2c	.	.	.
.	.	{16e-	.	.
.	.	16d	.	.
.	.	4c}	.	4a
=66	=66	=66	=66	=66
1BB-	4B-	1d	2ff]	[0b-
.	4F	.	.	.
.	2B-	.	4r	.
.	.	.	4f	.
2r	4G	2e-	{2g	.
.	4E-	.	.	.
4r	2B-	4d	2f}	.
4BB-	.	4d	.	.
=67	=67	=67	=67	=67
2E-	2G	2e-	4e-	0b-_
.	.	.	8r	.
.	.	.	[8b-	.
4D	2B-	4f	8b-]	.
.	.	.	{8f	.
4BB-	.	4d	[4b-	.
2B-	4G	2e-	4b-}]	.
.	4E-	.	2g	.
[2BB-	[2B-	4d	.	.
.	.	4d	4f	.
=68	=68	=68	=68	=68
4BB-]	4B-]	4f	{4.d	0b-;]
{4D	4B-	4f	.	.
.	.	.	16e-	.
.	.	.	16f}	.
2E-}	2B-	2e-	2g	.
1BB-;	1B-;	1d;	1f;	.
==	==	==	==	==
*-	*-	*-	*-	*-
!!!ENC: Mark Laxton
!!!EDD: Mark Laxton
!!!YEC: Mark Laxton, 1987
!!!EMD: Reference records added by D. Huron, 2001
!!!EEV: 1.1
